X:7007
T:Goathland Square Eight
T:Goatland Square Eight
R:Reel
C:Trad.
S:Cecil Sharp Mss
O:England
M:4/4
L:1/8
Q:1/4=160
K:G
D2|"G"G2GB d2B2|g2d2 B2G2|"Am"c2AB c2(3BcB|"D7"A2G2 F2D2|
"G"G2BB d2B2|g2d2 B2G2|"Am"A2AB c2ec|"D7"A2F2 "G"G2:|
|:D2|"G"G2gg g2gf|"C"e2ee e2ed|"Am"c2a2 a2ag|"D"f2d2 d2ef|
"Em"g2e2 "A7"e2ag|"D"f2d2 "G"d2g2|"A7"e2^c2 "D7"A2d=c|"G"B2G2 G2:|

